svgs/sharp-solid/stamp.svg

<svg xmlns="http://www.w3.org/2000/svg" viewBox="0 0 512 512"><!--! Font Awesome Pro 6.6.0 by @fontawesome - https://fontawesome.com License - https://fontawesome.com/license (Commercial License) Copyright 2024 Fonticons, Inc. --><path d="M320 167.6c19.6-17.6 32-43.1 32-71.6c0-53-43-96-96-96s-96 43-96 96c0 28.4 12.4 54 32 71.6l0 88.4-80 0C50.1 256 0 306.1 0 368l0 48 32 0 0 32 0 64 64 0 320 0 64 0 0-64 0-32 32 0 0-48c0-61.9-50.1-112-112-112l-80 0 0-88.4zM416 416l0 32L96 448l0-32 320 0z"/></svg>

<svg xmlns="http://www.w3.org/2000/svg" viewBox="0 0 512 512"><!--! Font Awesome Pro 6.4.2 by @fontawesome - https://fontawesome.com License - https://fontawesome.com/license (Commercial License) Copyright 2023 Fonticons, Inc. --><path d="M320 167.6c19.6-17.6 32-43.1 32-71.6c0-53-43-96-96-96s-96 43-96 96c0 28.4 12.4 54 32 71.6V256H112C50.1 256 0 306.1 0 368v48H32v32 64H96 416h64V448 416h32V368c0-61.9-50.1-112-112-112H320V167.6zM416 416v32H96V416H416z"/></svg>
